; generated by Slic3r Prusa Edition 1.41.0+win64 on 2019-03-19 at 18:13:08

; 

; external perimeters extrusion width = 0.45mm
; perimeters extrusion width = 0.45mm
; infill extrusion width = 0.45mm
; solid infill extrusion width = 0.45mm
; top infill extrusion width = 0.40mm

M107
M80 ; turn on PSU
M190 S50
M104 S190 ; start E heating
M17; enable motors
G28 X Y Z ; Home
G29 ; Autolevel
M109 S190
G90
G0 X0 Y0 F5000
G0 Z0 F5000
G91
G1 E8 F200
G90
; Filament gcode
G21 ; set units to millimeters
G90 ; use absolute coordinates
M82 ; use absolute distances for extrusion
G92 E0
G1 Z0.150 F4800.000
G1 E-1.00000 F3000.00000
G92 E0
G1 X113.711 Y116.009 F4800.000
G1 E1.00000 F3000.00000
G1 F720
G1 X129.016 Y101.007 E1.51932
G1 X130.299 Y99.896 E1.56046
G1 X131.647 Y98.918 E1.60081
G1 X133.055 Y98.067 E1.64067
G1 X134.681 Y97.274 E1.68451
G1 X136.036 Y96.741 E1.71979
G1 X137.416 Y96.320 E1.75475
G1 X139.047 Y95.956 E1.79525
G1 X140.826 Y95.720 E1.83875
G1 X142.486 Y95.649 E1.87900
G1 X144.130 Y95.717 E1.91886
G1 X145.753 Y95.922 E1.95850
G1 X147.352 Y96.260 E1.99810
G1 X148.827 Y96.701 E2.03542
G1 X222.547 Y121.335 E3.91889
G1 X224.889 Y122.208 E3.97944
G1 X227.214 Y123.303 E4.04172
G1 X229.431 Y124.584 E4.10376
G1 X231.583 Y126.083 E4.16732
G1 X232.612 Y126.904 E4.19923
G1 X234.379 Y128.495 E4.25683
G1 X236.200 Y130.427 E4.32117
G1 X237.833 Y132.495 E4.38502
G1 X238.575 Y133.568 E4.41663
G1 X239.801 Y135.590 E4.47392
G1 X240.995 Y137.982 E4.53871
G1 X241.960 Y140.430 E4.60247
G1 X242.655 Y142.727 E4.66062
G1 X242.949 Y143.964 E4.69143
G1 X243.402 Y146.606 E4.75639
G1 X243.619 Y149.249 E4.82064
G1 X243.544 Y152.893 E4.90898
G1 X243.217 Y155.527 E4.97328
G1 X242.656 Y158.151 E5.03830
G1 X241.525 Y161.629 E5.12694
G1 X240.456 Y164.043 E5.19092
G1 X239.166 Y166.383 E5.25566
G1 X237.850 Y168.364 E5.31328
G1 X237.039 Y169.438 E5.34590
G1 X235.349 Y171.398 E5.40861
G1 X233.577 Y173.138 E5.46879
G1 X231.610 Y174.776 E5.53081
G1 X230.418 Y175.643 E5.56654
G1 X228.326 Y176.966 E5.62650
G1 X226.053 Y178.154 E5.68866
G1 X223.693 Y179.146 E5.75069
G1 X221.264 Y179.936 E5.81259
G1 X218.803 Y180.515 E5.87384
G1 X151.717 Y193.938 E7.53170
G1 X148.103 Y194.548 E7.62050
G1 X144.272 Y194.866 E7.71365
G1 X142.396 Y194.901 E7.75913
G1 X138.850 Y194.753 E7.84513
G1 X135.051 Y194.278 E7.93789
G1 X131.301 Y193.475 E8.03082
G1 X127.908 Y192.451 E8.11670
G1 X126.150 Y191.801 E8.16212
G1 X122.646 Y190.247 E8.25500
G1 X119.295 Y188.398 E8.34776
G1 X116.341 Y186.436 E8.43369
G1 X114.799 Y185.270 E8.48054
G1 X112.011 Y182.869 E8.56969
G1 X110.541 Y181.429 E8.61954
G1 X108.105 Y178.719 E8.70786
G1 X105.845 Y175.741 E8.79843
G1 X103.848 Y172.595 E8.88874
G1 X102.153 Y169.359 E8.97724
G1 X101.316 Y167.480 E9.02710
G1 X100.023 Y163.981 E9.11748
G1 X99.044 Y160.462 E9.20599
G1 X98.345 Y156.796 E9.29643
G1 X97.954 Y153.084 E9.38687
G1 X97.875 Y149.438 E9.47525
G1 X97.961 Y147.377 E9.52524
G1 X98.358 Y143.668 E9.61562
G1 X99.045 Y140.086 E9.70399
G1 X100.030 Y136.547 E9.79302
G1 X101.352 Y132.983 E9.88513
G1 X102.986 Y129.522 E9.97789
G1 X103.894 Y127.879 E10.02336
G1 X105.793 Y124.887 E10.10924
G1 X108.086 Y121.855 E10.20135
G1 X110.648 Y119.011 E10.29410
G1 X113.668 Y116.051 E10.39657
G1 X113.961 Y116.350 F4800.000
G1 F720
G1 X129.300 Y101.314 E10.91706
G1 X130.558 Y100.224 E10.95739
G1 X131.872 Y99.270 E10.99674
G1 X133.249 Y98.437 E11.03574
G1 X134.837 Y97.661 E11.07857
G1 X136.172 Y97.136 E11.11332
G1 X137.537 Y96.720 E11.14790
G1 X139.133 Y96.365 E11.18753
G1 X140.866 Y96.136 E11.22988
G1 X142.489 Y96.067 E11.26926
G1 X144.098 Y96.134 E11.30828
G1 X145.682 Y96.333 E11.34696
G1 X147.247 Y96.665 E11.38571
G1 X148.703 Y97.100 E11.42255
G1 X222.409 Y121.729 E13.30565
G1 X224.726 Y122.593 E13.36557
G1 X227.019 Y123.673 E13.42700
G1 X229.206 Y124.936 E13.48819
G1 X231.315 Y126.405 E13.55047
G1 X232.337 Y127.219 E13.58212
G1 X234.089 Y128.796 E13.63925
G1 X235.883 Y130.700 E13.70264
G1 X237.489 Y132.732 E13.76541
G1 X238.225 Y133.795 E13.79673
G1 X239.436 Y135.794 E13.85337
G1 X240.613 Y138.151 E13.91721
G1 X241.564 Y140.563 E13.98004
G1 X242.541 Y144.054 E14.06788
G1 X242.987 Y146.652 E14.13176
G1 X243.201 Y149.256 E14.19507
G1 X243.127 Y152.867 E14.28258
G1 X242.806 Y155.456 E14.34581
G1 X242.254 Y158.036 E14.40973
G1 X241.134 Y161.484 E14.49757
G1 X240.082 Y163.857 E14.56047
G1 X238.813 Y166.158 E14.62416
G1 X237.507 Y168.125 E14.68138
G1 X236.717 Y169.171 E14.71313
G1 X235.045 Y171.112 E14.77522
G1 X233.291 Y172.834 E14.83476
G1 X231.351 Y174.449 E14.89594
G1 X230.188 Y175.294 E14.93078
G1 X228.114 Y176.606 E14.99024
G1 X225.876 Y177.776 E15.05143
G1 X223.548 Y178.754 E15.11262
G1 X221.152 Y179.533 E15.17369
G1 X218.719 Y180.106 E15.23425
G1 X151.635 Y193.529 E16.89204
G1 X148.046 Y194.134 E16.98024
G1 X144.260 Y194.448 E17.07230
G1 X140.729 Y194.448 E17.15784
G1 X138.876 Y194.336 E17.20284
G1 X135.122 Y193.866 E17.29452
G1 X131.417 Y193.074 E17.38632
G1 X128.037 Y192.054 E17.47187
G1 X126.296 Y191.410 E17.51686
G1 X122.833 Y189.873 E17.60866
G1 X119.516 Y188.044 E17.70045
G1 X116.579 Y186.092 E17.78589
G1 X115.066 Y184.948 E17.83187
G1 X112.294 Y182.562 E17.92048
G1 X110.848 Y181.146 E17.96953
G1 X108.427 Y178.453 E18.05728
G1 X106.189 Y175.504 E18.14700
G1 X104.208 Y172.382 E18.23660
G1 X102.527 Y169.174 E18.32435
G1 X101.088 Y165.768 E18.41395
G1 X100.422 Y163.857 E18.46299
G1 X99.451 Y160.368 E18.55075
G1 X98.758 Y156.736 E18.64035
G1 X98.371 Y153.054 E18.73007
G1 X98.292 Y149.438 E18.81770
G1 X98.377 Y147.412 E18.86684
G1 X98.770 Y143.739 E18.95634
G1 X99.451 Y140.182 E19.04409
G1 X100.428 Y136.674 E19.13234
G1 X101.737 Y133.146 E19.22354
G1 X103.354 Y129.719 E19.31534
G1 X104.251 Y128.095 E19.36030
G1 X106.141 Y125.118 E19.44575
G1 X108.412 Y122.117 E19.53695
G1 X110.944 Y119.306 E19.62863
G1 X113.918 Y116.392 E19.72952
; PURGING FINISHED
G1 F3840
G1 X114.832 Y115.496 E18.77952
G1 E18.72952 F3000.00000
G92 E0
G1 X137.551 Y144.041 F4800.000
G1 E1.00000 F3000.00000
G1 F720
G1 X138.090 Y143.649 E1.01614
G1 X138.586 Y143.349 E1.03018
G1 X139.252 Y143.010 E1.04830
G1 X139.876 Y142.763 E1.06457
G1 X140.514 Y142.570 E1.08072
G1 X141.166 Y142.432 E1.09686
G1 X141.827 Y142.348 E1.11301
G1 X142.468 Y142.321 E1.12856
G1 X143.157 Y142.348 E1.14526
G1 X143.819 Y142.432 E1.16144
G1 X144.471 Y142.570 E1.17759
G1 X145.109 Y142.763 E1.19373
G1 X145.728 Y143.008 E1.20988
G1 X146.325 Y143.304 E1.22602
G1 X146.584 Y143.461 E1.23336
G1 X146.895 Y143.649 E1.24217
G1 X147.434 Y144.041 E1.25831
G1 X147.938 Y144.476 E1.27446
G1 X148.405 Y144.952 E1.29060
G1 X148.829 Y145.466 E1.30674
G1 X149.215 Y146.022 E1.32314
G1 X149.622 Y146.759 E1.34356
G1 X149.826 Y147.193 E1.35517
G1 X150.059 Y147.817 E1.37131
G1 X150.238 Y148.459 E1.38746
G1 X150.363 Y149.113 E1.40360
G1 X150.432 Y149.778 E1.41979
G1 X150.445 Y150.467 E1.43648
G1 X150.404 Y151.107 E1.45204
G1 X150.307 Y151.766 E1.46818
G1 X150.155 Y152.415 E1.48433
G1 X149.949 Y153.049 E1.50047
G1 X149.691 Y153.663 E1.51662
G1 X149.382 Y154.253 E1.53276
G1 X149.024 Y154.817 E1.54895
G1 X148.606 Y155.365 E1.56564
G1 X148.176 Y155.842 E1.58119
G1 X147.691 Y156.298 E1.59734
G1 X147.169 Y156.712 E1.61348
G1 X146.614 Y157.080 E1.62963
G1 X146.030 Y157.401 E1.64577
G1 X145.421 Y157.672 E1.66192
G1 X144.792 Y157.891 E1.67806
G1 X144.147 Y158.057 E1.69421
G1 X143.490 Y158.168 E1.71035
G1 X142.826 Y158.224 E1.72650
G1 X142.159 Y158.224 E1.74264
G1 X141.496 Y158.168 E1.75879
G1 X140.839 Y158.057 E1.77493
G1 X140.193 Y157.891 E1.79108
G1 X139.564 Y157.672 E1.80722
G1 X138.955 Y157.401 E1.82337
G1 X138.372 Y157.080 E1.83951
G1 X137.815 Y156.711 E1.85570
G1 X137.277 Y156.281 E1.87239
G1 X136.809 Y155.842 E1.88794
G1 X136.363 Y155.347 E1.90409
G1 X135.960 Y154.816 E1.92023
G1 X135.603 Y154.253 E1.93638
G1 X135.294 Y153.663 E1.95252
G1 X135.036 Y153.049 E1.96867
G1 X134.830 Y152.415 E1.98481
G1 X134.678 Y151.766 E2.00096
G1 X134.581 Y151.107 E2.01710
G1 X134.539 Y150.442 E2.03325
G1 X134.553 Y149.776 E2.04939
G1 X134.623 Y149.113 E2.06554
G1 X134.747 Y148.459 E2.08168
G1 X134.927 Y147.817 E2.09783
G1 X135.159 Y147.193 E2.11397
G1 X135.443 Y146.590 E2.13012
G1 X135.776 Y146.013 E2.14626
G1 X136.156 Y145.466 E2.16241
G1 X136.581 Y144.952 E2.17855
G1 X137.047 Y144.476 E2.19470
G1 X137.506 Y144.080 E2.20939
G1 X137.779 Y144.397 F4800.000
G1 F720
G1 X138.322 Y143.998 E2.22571
G1 X138.789 Y143.715 E2.23895
G1 X139.424 Y143.391 E2.25622
G1 X140.014 Y143.158 E2.27159
G1 X140.618 Y142.975 E2.28689
G1 X141.236 Y142.844 E2.30219
G1 X141.862 Y142.765 E2.31748
G1 X142.469 Y142.739 E2.33220
G1 X143.122 Y142.765 E2.34805
G1 X143.750 Y142.844 E2.36337
G1 X144.367 Y142.975 E2.37866
G1 X144.971 Y143.158 E2.39396
G1 X145.558 Y143.390 E2.40926
G1 X146.124 Y143.671 E2.42455
G1 X146.368 Y143.819 E2.43147
G1 X146.664 Y143.998 E2.43985
G1 X147.174 Y144.369 E2.45515
G1 X147.652 Y144.781 E2.47044
G1 X148.094 Y145.232 E2.48574
G1 X148.496 Y145.719 E2.50103
G1 X148.860 Y146.242 E2.51648
G1 X149.250 Y146.949 E2.53606
G1 X149.441 Y147.355 E2.54691
G1 X149.661 Y147.946 E2.56221
G1 X149.831 Y148.554 E2.57750
G1 X149.949 Y149.175 E2.59280
G1 X150.015 Y149.803 E2.60812
G1 X150.027 Y150.457 E2.62397
G1 X149.988 Y151.063 E2.63869
G1 X149.896 Y151.688 E2.65398
G1 X149.752 Y152.302 E2.66928
G1 X149.557 Y152.903 E2.68458
G1 X149.312 Y153.485 E2.69987
G1 X149.020 Y154.044 E2.71517
G1 X148.681 Y154.578 E2.73049
G1 X148.284 Y155.098 E2.74634
G1 X147.878 Y155.549 E2.76106
G1 X147.417 Y155.981 E2.77635
G1 X146.923 Y156.373 E2.79165
G1 X146.397 Y156.723 E2.80694
G1 X145.844 Y157.027 E2.82224
G1 X145.267 Y157.283 E2.83754
G1 X144.671 Y157.491 E2.85283
G1 X144.060 Y157.648 E2.86813
G1 X143.437 Y157.753 E2.88342
G1 X142.808 Y157.806 E2.89872
G1 X142.177 Y157.806 E2.91402
G1 X141.548 Y157.753 E2.92931
G1 X140.926 Y157.648 E2.94461
G1 X140.314 Y157.491 E2.95991
G1 X139.718 Y157.283 E2.97520
G1 X139.141 Y157.027 E2.99050
G1 X138.588 Y156.723 E3.00579
G1 X138.062 Y156.373 E3.02112
G1 X137.550 Y155.965 E3.03696
G1 X137.108 Y155.549 E3.05168
G1 X136.685 Y155.080 E3.06698
G1 X136.303 Y154.577 E3.08227
G1 X135.965 Y154.044 E3.09757
G1 X135.673 Y153.485 E3.11287
G1 X135.428 Y152.903 E3.12816
G1 X135.233 Y152.302 E3.14346
G1 X135.089 Y151.688 E3.15875
G1 X134.997 Y151.063 E3.17405
G1 X134.957 Y150.433 E3.18935
G1 X134.970 Y149.802 E3.20464
G1 X135.036 Y149.175 E3.21994
G1 X135.155 Y148.554 E3.23524
G1 X135.324 Y147.946 E3.25053
G1 X135.544 Y147.355 E3.26583
G1 X135.813 Y146.784 E3.28112
G1 X136.129 Y146.237 E3.29642
G1 X136.489 Y145.719 E3.31172
G1 X136.891 Y145.232 E3.32701
G1 X137.333 Y144.781 E3.34231
G1 X137.733 Y144.436 E3.35512
G1 X138.006 Y144.752 F4800.000
G1 F720
G1 X138.553 Y144.346 E3.37162
G1 X138.992 Y144.080 E3.38406
G1 X139.596 Y143.773 E3.40048
G1 X140.151 Y143.553 E3.41496
G1 X140.722 Y143.380 E3.42941
G1 X141.305 Y143.256 E3.44385
G1 X141.897 Y143.182 E3.45830
G1 X142.469 Y143.158 E3.47219
G1 X143.088 Y143.182 E3.48719
G1 X143.680 Y143.256 E3.50164
G1 X144.263 Y143.380 E3.51609
G1 X144.834 Y143.553 E3.53054
G1 X145.388 Y143.772 E3.54499
G1 X145.922 Y144.037 E3.55943
G1 X146.151 Y144.176 E3.56593
G1 X146.432 Y144.346 E3.57388
G1 X146.914 Y144.697 E3.58833
G1 X147.366 Y145.086 E3.60278
G1 X147.783 Y145.512 E3.61722
G1 X148.163 Y145.971 E3.63167
G1 X148.505 Y146.463 E3.64617
G1 X148.878 Y147.140 E3.66489
G1 X149.055 Y147.517 E3.67500
G1 X149.263 Y148.076 E3.68945
G1 X149.423 Y148.650 E3.70390
G1 X149.535 Y149.236 E3.71834
G1 X149.598 Y149.829 E3.73280
G1 X149.609 Y150.448 E3.74780
G1 X149.573 Y151.020 E3.76168
G1 X149.485 Y151.610 E3.77613
G1 X149.349 Y152.190 E3.79058
G1 X149.165 Y152.757 E3.80503
G1 X148.934 Y153.307 E3.81948
G1 X148.658 Y153.835 E3.83392
G1 X148.338 Y154.339 E3.84838
G1 X147.962 Y154.831 E3.86338
G1 X147.579 Y155.256 E3.87726
G1 X147.144 Y155.665 E3.89171
G1 X146.677 Y156.035 E3.90616
G1 X146.180 Y156.365 E3.92061
G1 X145.658 Y156.652 E3.93505
G1 X145.113 Y156.895 E3.94950
G1 X144.550 Y157.091 E3.96395
G1 X143.973 Y157.239 E3.97840
G1 X143.385 Y157.338 E3.99284
G1 X142.791 Y157.388 E4.00729
G1 X142.194 Y157.388 E4.02174
G1 X141.600 Y157.338 E4.03619
G1 X141.012 Y157.239 E4.05063
G1 X140.435 Y157.091 E4.06508
G1 X139.872 Y156.895 E4.07953
G1 X139.327 Y156.652 E4.09398
G1 X138.805 Y156.365 E4.10842
G1 X138.308 Y156.035 E4.12288
G1 X137.824 Y155.649 E4.13788
G1 X137.406 Y155.256 E4.15177
G1 X137.007 Y154.813 E4.16621
G1 X136.647 Y154.338 E4.18066
G1 X136.327 Y153.835 E4.19511
G1 X136.051 Y153.307 E4.20956
G1 X135.820 Y152.757 E4.22400
G1 X135.636 Y152.190 E4.23845
G1 X135.500 Y151.610 E4.25290
G1 X135.413 Y151.020 E4.26735
G1 X135.375 Y150.425 E4.28179
G1 X135.388 Y149.829 E4.29624
G1 X135.450 Y149.236 E4.31069
G1 X135.562 Y148.650 E4.32514
G1 X135.722 Y148.076 E4.33958
G1 X135.930 Y147.517 E4.35403
G1 X136.184 Y146.977 E4.36848
G1 X136.482 Y146.461 E4.38293
G1 X136.822 Y145.971 E4.39737
G1 X137.202 Y145.512 E4.41182
G1 X137.619 Y145.086 E4.42627
G1 X137.961 Y144.791 E4.43720
G1 X137.945 Y144.357 F4800.000
G1 F3840
G1 X138.553 Y144.346 E3.88740
G1 X138.992 Y144.080 E3.50637
G1 X139.015 Y144.068 E3.48720
G1 E3.43720 F3000.00000
G92 E0
G1 X156.400 Y113.891 F4800.000
G1 E1.00000 F3000.00000
G1 F720
G1 X158.331 Y114.703 E1.05076
G1 X159.806 Y115.397 E1.09028
G1 X161.252 Y116.153 E1.12980
G1 X162.664 Y116.968 E1.16932
G1 X164.041 Y117.842 E1.20884
G1 X165.380 Y118.773 E1.24836
G1 X166.680 Y119.759 E1.28788
G1 X167.936 Y120.799 E1.32740
G1 X169.148 Y121.890 E1.36693
G1 X170.314 Y123.031 E1.40645
G1 X171.430 Y124.220 E1.44597
G1 X172.496 Y125.455 E1.48549
G1 X173.509 Y126.733 E1.52501
G1 X174.467 Y128.053 E1.56453
G1 X175.370 Y129.411 E1.60405
G1 X176.215 Y130.806 E1.64357
G1 X177.001 Y132.235 E1.68310
G1 X177.726 Y133.696 E1.72262
G1 X178.389 Y135.186 E1.76214
G1 X178.990 Y136.703 E1.80166
G1 X179.526 Y138.243 E1.84118
G1 X179.997 Y139.804 E1.88070
G1 X180.403 Y141.384 E1.92022
G1 X180.742 Y142.979 E1.95974
G1 X181.014 Y144.587 E1.99926
G1 X181.218 Y146.205 E2.03879
G1 X181.355 Y147.831 E2.07831
G1 X181.423 Y149.460 E2.11783
G1 X181.423 Y151.091 E2.15735
G1 X181.355 Y152.721 E2.19687
G1 X181.219 Y154.344 E2.23635
G1 X180.993 Y156.086 E2.27892
G1 X180.742 Y157.572 E2.31543
G1 X180.403 Y159.167 E2.35495
G1 X179.997 Y160.747 E2.39447
G1 X179.526 Y162.307 E2.43396
G1 X178.944 Y163.964 E2.47652
G1 X178.389 Y165.365 E2.51303
G1 X177.726 Y166.855 E2.55256
G1 X177.001 Y168.316 E2.59208
G1 X176.215 Y169.745 E2.63160
G1 X175.370 Y171.140 E2.67112
G1 X174.467 Y172.499 E2.71064
G1 X173.509 Y173.818 E2.75016
G1 X172.496 Y175.096 E2.78968
G1 X171.430 Y176.331 E2.82920
G1 X170.314 Y177.520 E2.86873
G1 X169.148 Y178.661 E2.90825
G1 X167.936 Y179.752 E2.94777
G1 X166.680 Y180.792 E2.98729
G1 X165.380 Y181.778 E3.02681
G1 X164.041 Y182.709 E3.06633
G1 X162.664 Y183.583 E3.10585
G1 X161.252 Y184.398 E3.14538
G1 X159.806 Y185.154 E3.18490
G1 X158.331 Y185.848 E3.22442
G1 X156.827 Y186.480 E3.26394
G1 X155.298 Y187.049 E3.30346
G1 X153.747 Y187.553 E3.34298
G1 X152.176 Y187.991 E3.38250
G1 X150.588 Y188.364 E3.42202
G1 X148.986 Y188.669 E3.46154
G1 X147.373 Y188.908 E3.50107
G1 X145.751 Y189.078 E3.54059
G1 X144.123 Y189.181 E3.58011
G1 X142.493 Y189.215 E3.61963
G1 X140.862 Y189.181 E3.65915
G1 X139.234 Y189.078 E3.69867
G1 X137.612 Y188.908 E3.73819
G1 X135.999 Y188.669 E3.77771
G1 X134.397 Y188.364 E3.81723
G1 X132.809 Y187.991 E3.85676
G1 X131.238 Y187.553 E3.89628
G1 X129.687 Y187.049 E3.93580
G1 X128.158 Y186.480 E3.97532
G1 X126.655 Y185.848 E4.01484
G1 X125.179 Y185.154 E4.05436
G1 X123.734 Y184.398 E4.09388
G1 X122.321 Y183.583 E4.13340
G1 X120.944 Y182.709 E4.17293
G1 X119.605 Y181.778 E4.21245
G1 X118.306 Y180.792 E4.25197
G1 X117.049 Y179.752 E4.29149
G1 X115.837 Y178.661 E4.33101
G1 X114.672 Y177.520 E4.37053
G1 X113.555 Y176.331 E4.41005
G1 X112.489 Y175.096 E4.44957
G1 X111.476 Y173.818 E4.48909
G1 X110.518 Y172.499 E4.52862
G1 X109.615 Y171.140 E4.56814
G1 X108.770 Y169.745 E4.60766
G1 X107.985 Y168.316 E4.64718
G1 X107.259 Y166.855 E4.68670
G1 X106.596 Y165.365 E4.72622
G1 X105.996 Y163.849 E4.76574
G1 X105.459 Y162.308 E4.80526
G1 X104.988 Y160.747 E4.84479
